X: 24
T: Fitz Ugly
%R: hornpipe
B: "Twenty Four Country Dances with Figures for the Year 1810", Button & Whitaker, p.12 #2
F: http://www.vwml.org/browse/browse-collections-dance-tune-books/browse-button1810
Z: 2014 John Chambers <jc:trillian.mit.edu>
M: C
L: 1/8
K: G
% - - - - - - - - - - - - - - - - - - - - - - - - - - - - -
[|\
G>AB>c d>Bg2 | e>cg2 d>Bg2 |\
d>cA>c B>cG>B | {B}A>GA>B A3D |\
G>AB>c d>Bg2 |
e>cg2 d>Bg2 |\
d>cA>c B>cG>B | {B}A>GA>B G2z2 |]\
F>Ad2 G>Bd2 | c>Bc>A B>dB>G |
F>Ad>A G>Be>d | ^c>AB>c d>=cB>A |\
G>AB>c d>Bg2 | e>cg2 d>Bg2 |\
(3(fag) (3(fed) g>de>c | B>dF>A G2z2 |]
% - - - - - - - - - - Dance description - - - - - - - - - -
%%begintext align
%%  Foot it and turn your Partner lead down the middle
%% up again poussette with the 2d Cu:
%%endtext
